X: 30591
T: One For The Road
R: jig
M: 6/8
K: Edorian
eBG EFG|FEF AFD|EAF GGA|Bcd cd^d|
eBG EFG|FEF AFD|EAF GBd|AFD E3:|
EGB edc|ded AFE|DEF AFA|B/c/dB AFD|
EGB edc|dfd AFE|DEF AdA|FED E3:|
EGB efg|fef afd|edB AFA|BdB AFD|
EGB edc|dcd AFE|DFA ded|AFD E3|
EGB efg|fef afd|edB AFA|BdB AFA|
Bef edB|AdB AFE|DEF AdB|AFA E3||

